usr/share/icons/biglinux-icons-material/scalable/mimetypes/application-x-rpm.svg

<svg width="24" height="24" viewBox="0 0 24 24" fill="none" xmlns="http://www.w3.org/2000/svg">
<rect x="1" y="1" width="22" height="22" rx="6.6" fill="url(#paint0_radial_3_1150)"/>
<path d="M7 13.9941V17.2427C7 17.3812 7.11145 17.4926 7.24989 17.4926H8.74922C8.88766 17.4926 8.9991 17.3812 8.9991 17.2427V13.9941H7ZM7.49978 15.9932H8.49933V16.9927H7.49978V15.9932Z" fill="#FAFAFA"/>
<path d="M8.00045 1V1.99955H9V1H8.00045ZM8.00045 1.99955H7.00089V2.99911H8.00045V1.99955ZM8.00045 2.99911V3.99866H9V2.99911H8.00045ZM8.00045 3.99866H7.00089V4.99821H8.00045V3.99866ZM8.00045 4.99821V5.99777H9V4.99821H8.00045ZM8.00045 5.99777H7.00089V6.99732H8.00045V5.99777ZM8.00045 6.99732V7.99687H9V6.99732H8.00045ZM8.00045 7.99687H7.00089V8.99643H8.00045V7.99687ZM8.00045 8.99643V9.99598H9V8.99643H8.00045ZM8.00045 9.99598H7.00089V10.9955H8.00045V9.99598ZM8.00045 10.9955V11.9951H9V10.9955H8.00045ZM8.00045 11.9951H7.00089V12.9946H8.00045V11.9951ZM8.00045 12.9946V13.9942H9V12.9946H8.00045Z" fill="#FAFAFA"/>
<g opacity="0.75">
<path d="M16.25 9C15.1228 9 14.0418 9.44777 13.2448 10.2448C12.4478 11.0418 12 12.1228 12 13.25C12 14.3772 12.4478 15.4582 13.2448 16.2552C14.0418 17.0522 15.1228 17.5 16.25 17.5C17.3772 17.5 18.4582 17.0522 19.2552 16.2552C20.0522 15.4582 20.5 14.3772 20.5 13.25C20.5 12.1228 20.0522 11.0418 19.2552 10.2448C18.4582 9.44777 17.3772 9 16.25 9ZM16.25 9.53125C17.2363 9.53125 18.1822 9.92305 18.8796 10.6204C19.577 11.3178 19.9688 12.2637 19.9688 13.25C19.9688 14.2363 19.577 15.1822 18.8796 15.8796C18.1822 16.577 17.2363 16.9687 16.25 16.9687C15.2637 16.9687 14.3178 16.577 13.6204 15.8796C12.923 15.1822 12.5312 14.2363 12.5312 13.25C12.5312 12.2637 12.923 11.3178 13.6204 10.6204C14.3178 9.92305 15.2637 9.53125 16.25 9.53125Z" fill="white"/>
<path d="M16.1437 10.5937C15.4935 10.595 14.8664 10.8347 14.3811 11.2674L14.7577 11.644C15.1426 11.3105 15.6345 11.1263 16.1437 11.125C16.7073 11.125 17.2478 11.3489 17.6463 11.7474C18.0449 12.1459 18.2687 12.6864 18.2687 13.25H18.8C18.8 12.5455 18.5201 11.8699 18.022 11.3717C17.5239 10.8736 16.8482 10.5937 16.1437 10.5937ZM13.7398 12.1285C13.5749 12.4795 13.4887 12.8622 13.4875 13.25H14.0187C14.0194 13.0058 14.0622 12.7635 14.1452 12.5339L13.7398 12.1285Z" fill="white"/>
<path d="M16.8577 11.7444L15.7177 14.3885C15.6409 14.4766 15.5898 14.5841 15.57 14.6992L15.5663 14.7067H15.5695C15.5217 15.0052 15.6869 15.2836 15.9514 15.3506C16.2165 15.4175 16.4938 15.2496 16.5932 14.9643L16.5969 14.9654V14.9495L16.6097 14.9096C16.633 14.8129 16.6346 14.7125 16.6134 14.6174L16.8577 11.7444Z" fill="white"/>
</g>
<defs>
<radialGradient id="paint0_radial_3_1150" cx="0" cy="0" r="1" gradientUnits="userSpaceOnUse" gradientTransform="translate(17.5 1) rotate(116.565) scale(24.5967)">
<stop stop-color="#FEA4A1"/>
<stop offset="1" stop-color="#E46864"/>
</radialGradient>
</defs>
</svg>

<svg xmlns="http://www.w3.org/2000/svg" width="24" height="24" fill="none"><rect width="22" height="22" x="1" y="1" fill="url(#a)" rx="6.6"/><path fill="#FAFAFA" d="M7 13.994v3.249c0 .138.111.25.25.25h1.5a.25.25 0 0 0 .25-.25v-3.249H7Zm.5 2h1v.999h-1v-1Z"/><path fill="#FAFAFA" d="M8 1v1h1V1H8Zm0 1H7v1h1V2Zm0 1v.999h1v-1H8Zm0 .999H7v1h1v-1Zm0 1v.999h1v-1H8Zm0 .999H7v1h1v-1Zm0 1v.999h1v-1H8Zm0 .999H7v1h1v-1Zm0 1v.999h1v-1H8Zm0 .999H7v1h1v-1Zm0 1v1h1v-1H8Zm0 1H7v.999h1v-1Zm0 .999v1h1v-1H8Z"/><g fill="#fff" opacity=".75"><path d="M16.25 9a4.25 4.25 0 1 0 0 8.5 4.25 4.25 0 0 0 0-8.5Zm0 .531a3.719 3.719 0 1 1 0 7.438 3.719 3.719 0 0 1 0-7.438Z"/><path d="M16.144 10.594a2.656 2.656 0 0 0-1.763.673l.377.377a2.125 2.125 0 0 1 1.386-.519 2.125 2.125 0 0 1 2.125 2.125h.531a2.657 2.657 0 0 0-2.656-2.656Zm-2.404 1.535a2.657 2.657 0 0 0-.252 1.121h.53c.001-.244.044-.486.127-.716l-.405-.405Z"/><path d="m16.858 11.744-1.14 2.645a.637.637 0 0 0-.148.31l-.004.008h.003c-.047.298.118.577.382.644.265.066.543-.101.642-.387l.004.001v-.015l.013-.04a.648.648 0 0 0 .003-.293l.245-2.873Z"/></g><defs><radialGradient id="a" cx="0" cy="0" r="1" gradientTransform="rotate(116.565 8.441 5.908) scale(24.5967)" gradientUnits="userSpaceOnUse"><stop stop-color="#FEA4A1"/><stop offset="1" stop-color="#E46864"/></radialGradient></defs></svg>
